public/icons/github.svg

<?xml version="1.0" encoding="UTF-8"?><svg width="24px" height="24px" stroke-width="1.5" viewBox="0 0 24 24" fill="none" xmlns="http://www.w3.org/2000/svg" color="#000000"><path d="M16 22.0268V19.1568C16.0375 18.68 15.9731 18.2006 15.811 17.7506C15.6489 17.3006 15.3929 16.8902 15.06 16.5468C18.2 16.1968 21.5 15.0068 21.5 9.54679C21.4997 8.15062 20.9627 6.80799 20 5.79679C20.4558 4.5753 20.4236 3.22514 19.91 2.02679C19.91 2.02679 18.73 1.67679 16 3.50679C13.708 2.88561 11.292 2.88561 8.99999 3.50679C6.26999 1.67679 5.08999 2.02679 5.08999 2.02679C4.57636 3.22514 4.54413 4.5753 4.99999 5.79679C4.03011 6.81549 3.49251 8.17026 3.49999 9.57679C3.49999 14.9968 6.79998 16.1868 9.93998 16.5768C9.61098 16.9168 9.35725 17.3222 9.19529 17.7667C9.03334 18.2112 8.96679 18.6849 8.99999 19.1568V22.0268" stroke="#000000" stroke-width="1.5" stroke-linecap="round" stroke-linejoin="round"></path><path d="M9 20.0267C6 20.9999 3.5 20.0267 2 17.0267" stroke="#000000" stroke-width="1.5" stroke-linecap="round" stroke-linejoin="round"></path></svg>

<?xml version="1.0" encoding="UTF-8"?><svg width="24px" height="24px" stroke-width="1.5" viewBox="0 0 24 24" fill="none" xmlns="http://www.w3.org/2000/svg" color="#000000"><path d="M16 22.027v-2.87a3.37 3.37 0 00-.94-2.61c3.14-.35 6.44-1.54 6.44-7a5.44 5.44 0 00-1.5-3.75 5.07 5.07 0 00-.09-3.77s-1.18-.35-3.91 1.48a13.38 13.38 0 00-7 0c-2.73-1.83-3.91-1.48-3.91-1.48A5.07 5.07 0 005 5.797a5.44 5.44 0 00-1.5 3.78c0 5.42 3.3 6.61 6.44 7a3.37 3.37 0 00-.94 2.58v2.87M9 20.027c-3 .973-5.5 0-7-3" stroke="#000000" stroke-width="1.5" stroke-linecap="round" stroke-linejoin="round"></path></svg>
